!!! OTL: Berkowitz368
!!! Chapter: 1
!!! Section: III
!!! Page: 90
!!! Mode: 
!!! Encoder: DJB
**kern
*staff1
*I"Piano
=1-
*clefF4
*k[f#c#g#d#a#]
*B:
*met(c|)
*M2/2
8G#\L
8E#\
8F#\
8e\J
2d#\
=2
2c#\
[2B\
=3
8B\L]
8A#\
8c#\
8E\J
[2G#\
=4
8G#\L]
8F#\
8B\
8D#\J
4F#\
4F##\
=5
8A#\
4G#\
8F#\
8F#\
4E\
8D#\
=6
4D#\
4C#/
[2G#\
=7
4G#\]
8A#\L
8G#\J
8E#/L
8F#/
8E#/
8AA#/J
=8
!!linebreak:original
4.C#/
16D#/LL
16C#/JJ
2BB/
==
*-
